public/assets/imgs/g-plus-64.svg

<svg fill="none" height="42" viewBox="0 0 66 42" width="66" xmlns="http://www.w3.org/2000/svg"><path clip-rule="evenodd" d="m20.7747 7.40548c4.398-.27955 6.5758 1.72238 8.2199 3.23372l.1511.1388 4.3106-4.70244c-.0568-.05204-.1156-.10621-.1765-.16229-1.8885-1.73892-5.7851-5.326961-12.9097-4.8741-8.7212.55441-13.76352 4.74043-16.4689 9.48773-2.58411 4.5344-2.9012 9.3147-2.9012 11.2381 0 2.1655.73585 6.8232 3.4914 11.0413 2.88477 4.4159 7.9393 8.2412 16.081 8.2412 7.5098 0 12.4803-3.1322 15.4362-7.3353 2.8332-4.0287 3.6409-8.7746 3.5552-12.0311l-.0817-3.1057h-18.9097v6.3792h12.3296c-.3384 1.6882-.9992 3.5065-2.1114 5.088-1.7343 2.4661-4.7377 4.6257-10.2182 4.6257-5.7765 0-8.9133-2.5539-10.74042-5.3508-1.95634-2.9947-2.45282-6.3835-2.45282-7.5525 0-1.4112.26283-4.9184 2.06439-8.0797 1.68025-2.9485 4.82945-5.8665 11.33115-6.27982zm29.4372 17.11422v8.2639h6.3792v-8.2639h8.4089v-6.3791h-8.4089v-8.40892h-6.3792v8.40892h-8.4088v6.3791z" fill="#000" fill-rule="evenodd" stroke="#000"/></svg>

<svg width="66" height="42" viewBox="0 0 66 42" fill="none" xmlns="http://www.w3.org/2000/svg">
<path fill-rule="evenodd" clip-rule="evenodd" d="M20.7747 7.40548C25.1727 7.12593 27.3505 9.12786 28.9946 10.6392L29.1457 10.778L33.4563 6.07556C33.3995 6.02352 33.3407 5.96935 33.2798 5.91327C31.3913 4.17435 27.4947 0.586309 20.3701 1.03917C11.6489 1.59358 6.60658 5.7796 3.9012 10.5269C1.31709 15.0613 1 19.8416 1 21.765C1 23.9305 1.73585 28.5882 4.4914 32.8063C7.37617 37.2222 12.4307 41.0475 20.5724 41.0475C28.0822 41.0475 33.0527 37.9153 36.0086 33.7122C38.8418 29.6835 39.6495 24.9376 39.5638 21.6811L39.4821 18.5754H20.5724V24.9546H32.902C32.5636 26.6428 31.9028 28.4611 30.7906 30.0426C29.0563 32.5087 26.0529 34.6683 20.5724 34.6683C14.7959 34.6683 11.6591 32.1144 9.83198 29.3175C7.87564 26.3228 7.37916 22.934 7.37916 21.765C7.37916 20.3538 7.64199 16.8466 9.44355 13.6853C11.1238 10.7368 14.273 7.8188 20.7747 7.40548ZM50.2119 24.5197V32.7836H56.5911V24.5197H65V18.1406H56.5911V9.73168H50.2119V18.1406H41.8031V24.5197H50.2119Z" fill="black" stroke="black"/>
</svg>
